X: 0932
T: SPANISH PATRIOTS' MARCH
B: Oliver Ditson "The Boston Collection of Instrumental Music" 1910 p.98 #2
F: http://conquest.imslp.info/files/imglnks/usimg/8/8f/IMSLP175643-PMLP309456-bostoncollection00bost_bw.pdf
%: 2012 John Chambers <jc:trillian.mit.edu>
M: 4/4
L: 1/16
K: D
A4 |\
d4 d3d d4 fafd | e4 e3e e4 f3g |\
a4 a3b a2f2d2f2 | efed cdcB ABAG FGFE |
D4 d3d d4 fafd | e4 e3e e4 f3g |\
a2d'2 c'bag f4 e4 | d4 d3d d4 :: f3g |
a4 a3a a4 d'3a | b4 a3a a4 f3g |\
a4 a3b a2f2d2f2 | efed cdcB ABAG FGFE |
D4 d3d d4 fafd | e4 e3e e4 f3g |\
a2d'2 c'bag f4 e4 | d4 d3d d4 :|

%%sep 1 1 500
%%sep 1 1 500
